X:18590
T:Welsh reel (2)
R:Reel
O:Wales
M:4/4
K:G
G3A B2G2|c2B2 c2A2|G3A B2G2|F2A2 F2D2|\
G3A B2G2|c2B2 c2A2|B2d2 cBAG|F2A2 F2D2::
E2c2 c3G|E2c2 G2E2|F2d2 d3A|F2d2 A2F2|\
E2c2 c3G|E2c2 G2E2|F2d2 cBAG|F2A2 F2D2:|


